icons/chat-voice-fill.svg

<svg xmlns="http://www.w3.org/2000/svg" width="24" height="24" fill="none"><g clip-path="url(#a)"><g><path fill="#121212" d="M4.92899 19.071C3.99903 18.1434 3.26153 17.0413 2.75887 15.8278C2.25622 14.6143 1.99832 13.3135 1.99999 12C1.99999 6.477 6.47699 2 12 2C17.523 2 22 6.477 22 12C22 17.523 17.523 22 12 22H1.99999L4.92899 19.071ZM11 6V18H13V6H11ZM6.99999 9V15H8.99999V9H6.99999ZM15 9V15H17V9H15Z"/></g></g><defs><clipPath id="a"><rect width="24" height="24" fill="white"/></clipPath></defs></svg>

<svg width="24" height="24" fill="none" xmlns="http://www.w3.org/2000/svg"><g clip-path="url(#a)"><path d="M4.929 19.071A9.97 9.97 0 0 1 2 12C2 6.477 6.477 2 12 2s10 4.477 10 10-4.477 10-10 10H2l2.929-2.929ZM11 6v12h2V6h-2ZM7 9v6h2V9H7Zm8 0v6h2V9h-2Z" /></g><defs><clipPath id="a"><path fill="#fff" d="M0 0h24v24H0z"/></clipPath></defs></svg>
